static/img/svg/bookmark-plus.svg

<svg xmlns="http://www.w3.org/2000/svg" width="24" height="24" viewBox="0 0 24 24"><path d="M11 14h2v-3h3V9h-3V6h-2v3H8v2h3z"/><path d="M20 3a1 1 0 0 0-1-1H5a1 1 0 0 0-1 1v18a1 1 0 0 0 1.496.868L12 18.152l6.504 3.716a.996.996 0 0 0 .998-.003A1 1 0 0 0 20 21V3zm-2 16.277l-5.504-3.145a.996.996 0 0 0-.992 0L6 19.277V4h12v15.277z"/></svg>

<svg xmlns="http://www.w3.org/2000/svg" width="24" height="24" viewBox="0 0 24 24"><path d="M11 14L13 14 13 11 16 11 16 9 13 9 13 6 11 6 11 9 8 9 8 11 11 11z"/><path d="M20,3c0-0.552-0.447-1-1-1H5C4.447,2,4,2.448,4,3v18c0,0.356,0.189,0.686,0.498,0.865c0.309,0.179,0.688,0.18,0.998,0.003 L12,18.152l6.504,3.716C18.657,21.956,18.829,22,19,22c0.174,0,0.347-0.045,0.502-0.135C19.811,21.686,20,21.356,20,21V3z M18,19.277l-5.504-3.145C12.343,16.044,12.171,16,12,16s-0.343,0.044-0.496,0.132L6,19.277V4h12V19.277z"/></svg>
